X:1
T:Silver Threads and Golden Needles
M:4/4
L:1/4
K:D
 A A| F3/2 E/2 F E| F B G A| B2 d d| d3/2 d/2 e B| A A G F| E2 A A|\
 F3/2 E/2 F E| F d3/2 d/2 B| A A G E| D2 D D| B3/2 A/2 B A| B F A A|\
 B F3/2 E/2F/2 E/2| F B G A| B2 d d| d3/2 d/2 e B| A A G F| D2||
